src/assets/printer.fill.svg

<svg height="25" viewBox="0 0 26 25" width="26" xmlns="http://www.w3.org/2000/svg"><g><path d="m0 0h25.4955v24.8894h-25.4955z" opacity="0"/><g fill-opacity=".85"><path d="m18.4454625 4.76831h-12.51440425c.13302683-1.5003087 1.05764657-2.19555 2.58648333-2.19555h7.34859562c1.5846608 0 2.4549922.6952413 2.5793253 2.19555z"/><path d="m22 8.67798874v6.64970306c0 1.7487371-.9528793 2.6723082-2.6899911 2.6723082h-.2554426v-4.3405789c0-1.175392-.8772526-2.0516398-2.0504468-2.0516398h-9.02140329c-1.16753289 0-2.04782077.8762478-2.04782077 2.0516398v4.3405789h-.24487019c-1.73709482 0-2.69002525-.9235711-2.69002525-2.6723082v-6.64970306c0-1.74868595 1.01235749-2.67798874 2.69002525-2.67798874h13.61998365c1.7371118 0 2.6899911.92930279 2.6899911 2.67798874zm-6 .32333823c0 .55085838.4505014.99867303 1.0036945.99867303.5408279 0 .9963055-.45283602.9963055-.99867303 0-.54584455-.4554776-1.00132697-.9963055-1.00132697-.5531931 0-1.0036945.45548242-1.0036945 1.00132697z"/><path d="m7 20.7918796c0 .7260469.46786421 1.2081204 1.16653886 1.2081204h8.66108234c.7044795 0 1.1723788-.4820735 1.1723788-1.2081204v-6.9090571c0-.5338501-.3444356-.8828225-.8652103-.8828225h-9.27810259c-.5149435 0-.85668711.3489724-.85668711.8828225zm2.6026504-4.7918796c-.34688486 0-.6026504-.2264125-.6026504-.5114038 0-.2757019.25320171-.4885962.6026504-.4885962h4.8056883c.335937 0 .5916613.2128943.5916613.4885962 0 .2849913-.2557243.5114038-.5916613.5114038zm0 3c-.34944869 0-.6026504-.217539-.6026504-.4910919 0-.287071.25576554-.5089081.6026504-.5089081h4.8056883c.335937 0 .5916613.2218371.5916613.5089081 0 .2735529-.2557243.4910919-.5916613.4910919z"/></g></g></svg>

<?xml version="1.0" encoding="UTF-8"?>
<svg width="26px" height="25px" viewBox="0 0 26 25" version="1.1" xmlns="http://www.w3.org/2000/svg" xmlns:xlink="http://www.w3.org/1999/xlink">
    <title>printer.fill</title>
    <g id="Page-1" stroke="none" stroke-width="1" fill="none" fill-rule="evenodd">
        <g id="printer.fill" fill="#000000" fill-rule="nonzero">
            <rect id="Rectangle" opacity="0" x="0" y="0" width="25.4955" height="24.8894"></rect>
            <path d="M18.4454625,4.76831 L5.93105825,4.76831 C6.06408508,3.2680013 6.98870482,2.57276 8.51754158,2.57276 L15.8661372,2.57276 C17.450798,2.57276 18.3211294,3.2680013 18.4454625,4.76831 Z" id="Path" fill-opacity="0.85"></path>
            <path d="M22,8.67798874 L22,15.3276918 C22,17.0764289 21.0471207,18 19.3100089,18 L19.0545663,18 L19.0545663,13.6594211 C19.0545663,12.4840291 18.1773137,11.6077813 17.0041195,11.6077813 L7.98271621,11.6077813 C6.81518332,11.6077813 5.93489544,12.4840291 5.93489544,13.6594211 L5.93489544,18 L5.69002525,18 C3.95293043,18 3,17.0764289 3,15.3276918 L3,8.67798874 C3,6.92930279 4.01235749,6 5.69002525,6 L19.3100089,6 C21.0471207,6 22,6.92930279 22,8.67798874 Z M16,9.00132697 C16,9.55218535 16.4505014,10 17.0036945,10 C17.5445224,10 18,9.54716398 18,9.00132697 C18,8.45548242 17.5445224,8 17.0036945,8 C16.4505014,8 16,8.45548242 16,9.00132697 Z" id="Shape" fill-opacity="0.85"></path>
            <path d="M7,20.7918796 C7,21.5179265 7.46786421,22 8.16653886,22 L16.8276212,22 C17.5321007,22 18,21.5179265 18,20.7918796 L18,13.8828225 C18,13.3489724 17.6555644,13 17.1347897,13 L7.85668711,13 C7.34174361,13 7,13.3489724 7,13.8828225 L7,20.7918796 Z M9.6026504,16 C9.25576554,16 9,15.7735875 9,15.4885962 C9,15.2128943 9.25320171,15 9.6026504,15 L14.4083387,15 C14.7442757,15 15,15.2128943 15,15.4885962 C15,15.7735875 14.7442757,16 14.4083387,16 L9.6026504,16 Z M9.6026504,19 C9.25320171,19 9,18.782461 9,18.5089081 C9,18.2218371 9.25576554,18 9.6026504,18 L14.4083387,18 C14.7442757,18 15,18.2218371 15,18.5089081 C15,18.782461 14.7442757,19 14.4083387,19 L9.6026504,19 Z" id="Shape" fill-opacity="0.85"></path>
        </g>
    </g>
</svg>
